client/resources/iconsets/breeze/src/svg/large/icon_note_green_large.svg

<svg xmlns="http://www.w3.org/2000/svg" width="24" height="24" viewBox="0 0 24 24">
 <path style="fill:#81cc2b" 
       d="M 4 2 C 3.446 2 3 2.446 3 3 L 3 18 L 8 23 L 20 23 C 20.554 23 21 22.554 21 22 L 21 3 C 21 2.446 20.554 2 20 2 L 4 2 z "
       />
 <path style="fill:#ffffff" 
       d="M 7,5 C 6.446,5 6,5.446 6,6 6,6.554 6.446,7 7,7 L 17,7 C 17.554,7 18,6.554 18,6 18,5.446 17.554,5 17,5 Z m -3,12 5,5 0,-5 z"
       />
</svg>

<svg xmlns="http://www.w3.org/2000/svg" width="24" height="24"><path d="M4 2a1 1 0 0 0-1 1v15l5 5h12a1 1 0 0 0 1-1V3a1 1 0 0 0-1-1H4z" fill="#81cc2b"/><path d="M7 5a1 1 0 1 0 0 2h10a1 1 0 1 0 0-2zM4 17l5 5v-5z" fill="#fff"/></svg>
